img/pop-up-bg.svg

<svg width="299" height="521" viewBox="0 0 299 521" fill="none" xmlns="http://www.w3.org/2000/svg">
<path d="M355.551 211.546L355.12 328.139C355.084 333.928 352.806 339.466 348.785 343.539C344.764 347.611 339.329 349.885 333.672 349.861L304.147 349.752C301.235 349.737 298.357 349.11 295.692 347.91C293.026 346.71 290.63 344.962 288.652 342.776L288.524 342.632C286.553 340.358 285.03 337.715 284.039 334.85L283.889 334.486C283.233 332.35 282.904 330.122 282.914 327.883L283.062 287.933C283.102 278.016 280.075 268.34 274.416 260.29C268.756 252.24 260.754 246.228 251.553 243.115C250.803 242.871 250.133 242.42 249.616 241.813C249.099 241.206 248.755 240.466 248.621 239.672C248.611 239.555 248.611 239.437 248.622 239.32L248.624 238.891C248.628 238.231 248.773 237.58 249.048 236.982C249.323 236.385 249.722 235.856 250.216 235.432L300.778 194.327C304.597 191.206 309.344 189.516 314.231 189.537L334.265 189.611C337.071 189.62 339.847 190.195 342.435 191.302C345.023 192.409 347.373 194.028 349.35 196.065C351.326 198.102 352.892 200.517 353.956 203.174C355.02 205.83 355.562 208.675 355.551 211.546ZM323.687 341.101L333.704 341.138C337.085 341.154 340.334 339.796 342.739 337.364C345.144 334.931 346.508 331.622 346.532 328.162L346.964 211.514C346.968 208.052 345.63 204.729 343.243 202.274C340.857 199.82 337.616 198.434 334.233 198.422L314.177 198.348C311.251 198.376 308.418 199.403 306.126 201.266L261.246 237.739C270.412 242.354 278.123 249.516 283.498 258.406C288.873 267.296 291.694 277.555 291.639 288.009C291.637 288.46 291.636 288.867 291.634 289.373C291.647 289.567 291.646 289.762 291.632 289.956L291.491 327.959C291.495 329.22 291.667 330.476 292.004 331.689C292.64 333.591 293.638 335.344 294.941 336.848C296.115 338.16 297.542 339.208 299.132 339.928C300.722 340.648 302.441 341.022 304.179 341.029L322.634 341.097C322.786 341.066 322.941 341.048 323.096 341.044C323.294 341.042 323.493 341.061 323.687 341.101Z" fill="#EAEAEA" fill-opacity="0.2"/>
<path d="M275.1 296.217C275.08 306.134 271.206 315.641 264.321 322.667C257.437 329.693 248.101 333.668 238.348 333.725L237.65 333.723C230.21 333.653 222.965 331.301 216.862 326.974C210.76 322.647 206.085 316.547 203.45 309.473C200.816 302.398 200.344 294.68 202.096 287.328C203.849 279.975 207.744 273.333 213.272 268.269C213.422 268.092 213.547 268.004 213.547 268.029L213.81 267.814L213.947 267.701L214.098 267.562L216.786 265.43C216.935 265.255 217.108 265.102 217.298 264.976C222.87 261.12 229.371 258.885 236.1 258.511C242.829 258.137 249.53 259.639 255.481 262.855C261.431 266.07 266.405 270.877 269.865 276.757C273.324 282.637 275.139 289.366 275.112 296.217L275.1 296.217ZM219.964 275.734C215.939 279.439 213.104 284.289 211.827 289.654C210.55 295.019 210.891 300.651 212.804 305.816C214.717 310.981 218.114 315.442 222.554 318.617C226.995 321.793 232.272 323.536 237.7 323.621L238.286 323.623C245.37 323.465 252.112 320.491 257.065 315.339C262.019 310.187 264.79 303.266 264.784 296.061C264.778 288.857 261.996 281.942 257.034 276.799C252.072 271.656 245.325 268.695 238.24 268.551C232.831 268.53 227.541 270.172 223.064 273.261L220.239 275.532L219.976 275.708L219.964 275.734Z" fill="#EAEAEA" fill-opacity="0.2"/>
<path d="M201.969 49.677L201.534 167.153C201.527 172.986 203.816 178.583 207.898 182.717C211.979 186.85 217.521 189.182 223.306 189.2L253.502 189.312C256.48 189.319 259.428 188.709 262.163 187.52C264.898 186.331 267.361 184.588 269.401 182.4L269.533 182.256C271.566 179.979 273.143 177.328 274.179 174.449L274.334 174.084C275.022 171.936 275.375 169.694 275.381 167.438L275.53 127.185C275.564 117.193 278.732 107.466 284.58 99.3982C290.429 91.33 298.658 85.3331 308.091 82.2654C308.86 82.025 309.548 81.5765 310.082 80.9687C310.615 80.361 310.973 79.6173 311.116 78.8187C311.127 78.7008 311.128 78.5821 311.117 78.4641L311.119 78.0319C311.119 77.3667 310.976 76.7093 310.699 76.1055C310.422 75.5017 310.018 74.9657 309.516 74.5349L258.116 32.7397C254.233 29.5664 249.391 27.8277 244.393 27.8124L223.904 27.7366C221.034 27.7245 218.191 28.2825 215.536 29.3787C212.88 30.4749 210.465 32.0878 208.428 34.1253C206.391 36.1628 204.772 38.585 203.664 41.2534C202.556 43.9218 201.98 46.7841 201.969 49.677ZM233.583 180.449L223.338 180.411C219.881 180.402 216.568 179.01 214.127 176.541C211.686 174.072 210.316 170.727 210.317 167.241L210.752 49.7095C210.774 46.2204 212.167 42.8824 214.626 40.4274C217.086 37.9724 220.41 36.601 223.871 36.6138L244.382 36.6897C247.375 36.7406 250.264 37.7966 252.594 39.6903L298.218 76.7761C288.81 81.3571 280.87 88.5153 275.306 97.4318C269.743 106.348 266.78 116.663 266.758 127.197C266.756 127.652 266.755 128.062 266.753 128.572C266.738 128.767 266.737 128.963 266.751 129.159L266.609 167.45C266.596 168.721 266.41 169.984 266.056 171.205C265.391 173.115 264.357 174.874 263.014 176.38C261.803 177.693 260.336 178.739 258.704 179.452C257.073 180.165 255.313 180.53 253.534 180.523L234.661 180.453C234.505 180.42 234.347 180.401 234.188 180.396C233.985 180.393 233.782 180.41 233.583 180.449Z" fill="#EAEAEA" fill-opacity="0.2"/>
<path d="M284.22 134.785C284.167 144.702 287.845 154.237 294.452 161.312C301.059 168.388 310.059 172.431 319.492 172.559L320.167 172.562C327.363 172.547 334.388 170.247 340.322 165.965C346.256 161.683 350.822 155.617 353.421 148.562C356.021 141.507 356.534 133.792 354.892 126.427C353.251 119.062 349.532 112.391 344.222 107.287C344.078 107.109 343.958 107.02 343.958 107.046L343.705 106.829L343.573 106.715L343.429 106.575L340.844 104.423C340.701 104.247 340.535 104.093 340.352 103.965C334.991 100.069 328.72 97.7863 322.214 97.3636C315.709 96.9408 309.216 98.3939 303.438 101.566C297.659 104.738 292.814 109.509 289.425 115.363C286.036 121.217 284.232 127.933 284.208 134.785L284.22 134.785ZM337.696 114.703C341.561 118.438 344.268 123.309 345.464 128.683C346.66 134.057 346.29 139.686 344.402 144.837C342.514 149.988 339.195 154.424 334.878 157.567C330.56 160.71 325.443 162.415 320.193 162.46L319.626 162.458C312.775 162.249 306.276 159.226 301.523 154.037C296.769 148.849 294.14 141.909 294.198 134.704C294.256 127.5 296.998 120.605 301.834 115.499C306.671 110.392 313.218 107.48 320.071 107.388C325.303 107.406 330.408 109.086 334.715 112.208L337.431 114.499L337.684 114.678L337.696 114.703Z" fill="#EAEAEA" fill-opacity="0.2"/>
<path d="M314.797 366.108L198.904 365.259C193.15 365.231 187.62 367.499 183.528 371.566C179.435 375.632 177.115 381.164 177.076 386.948L176.857 417.138C176.839 420.115 177.43 423.065 178.593 425.803C179.757 428.542 181.467 431.011 183.619 433.058L183.76 433.191C185.999 435.231 188.608 436.818 191.445 437.863L191.805 438.02C193.921 438.714 196.132 439.075 198.358 439.09L238.067 439.381C247.926 439.45 257.509 442.652 265.448 448.528C273.386 454.403 279.273 462.652 282.265 472.094C282.5 472.864 282.94 473.554 283.537 474.089C284.135 474.624 284.867 474.985 285.655 475.13C285.771 475.142 285.888 475.143 286.005 475.133L286.431 475.136C287.087 475.139 287.736 474.998 288.333 474.723C288.93 474.449 289.46 474.047 289.887 473.546L331.304 422.303C334.449 418.433 336.182 413.598 336.215 408.601L336.363 388.116C336.386 385.247 335.845 382.402 334.773 379.744C333.701 377.085 332.119 374.665 330.116 372.621C328.114 370.577 325.73 368.95 323.101 367.833C320.473 366.715 317.651 366.129 314.797 366.108ZM185.672 397.254L185.746 387.012C185.768 383.555 187.153 380.247 189.598 377.816C192.042 375.384 195.347 374.026 198.786 374.039L314.734 374.889C318.176 374.923 321.464 376.328 323.877 378.796C326.29 381.263 327.631 384.592 327.606 388.052L327.457 408.559C327.396 411.55 326.344 414.436 324.467 416.758L287.716 462.243C283.231 452.82 276.198 444.856 267.421 439.262C258.645 433.668 248.479 430.67 238.087 430.61C237.639 430.607 237.234 430.604 236.732 430.6C236.539 430.585 236.345 430.584 236.152 430.596L198.378 430.319C197.123 430.302 195.878 430.111 194.675 429.754C192.792 429.082 191.061 428.042 189.58 426.694C188.289 425.478 187.263 424.008 186.565 422.374C185.868 420.74 185.514 418.979 185.527 417.201L185.664 398.331C185.697 398.176 185.716 398.018 185.722 397.859C185.726 397.656 185.709 397.454 185.672 397.254Z" fill="#EAEAEA" fill-opacity="0.2"/>
<path d="M230.689 447.916C220.946 447.828 211.563 451.534 204.586 458.228C197.609 464.921 193.603 474.059 193.442 483.649L193.437 484.335C193.425 491.652 195.658 498.803 199.843 504.851C204.029 510.898 209.972 515.561 216.894 518.229C223.816 520.897 231.395 521.444 238.637 519.801C245.88 518.157 252.448 514.399 257.483 509.017C257.658 508.872 257.747 508.75 257.722 508.749L257.935 508.494L258.048 508.36L258.186 508.213L260.31 505.593C260.483 505.448 260.635 505.28 260.762 505.094C264.61 499.657 266.876 493.288 267.316 486.675C267.756 480.062 266.352 473.456 263.257 467.57C260.162 461.683 255.492 456.741 249.753 453.275C244.013 449.809 237.422 447.952 230.69 447.903L230.689 447.916ZM250.221 502.356C246.537 506.274 241.741 509.009 236.456 510.206C231.171 511.404 225.642 511.008 220.588 509.071C215.533 507.134 211.187 503.744 208.115 499.344C205.043 494.943 203.387 489.735 203.362 484.396L203.366 483.82C203.598 476.855 206.592 470.258 211.708 465.442C216.824 460.627 223.653 457.977 230.732 458.061C237.81 458.145 244.574 460.956 249.574 465.892C254.573 470.827 257.409 477.493 257.474 484.462C257.437 489.781 255.767 494.966 252.684 499.334L250.422 502.088L250.246 502.344L250.221 502.356Z" fill="#EAEAEA" fill-opacity="0.2"/>
<path d="M152.732 -8.5049C142.989 -8.59294 133.606 -4.88637 126.629 1.80699C119.652 8.50035 115.646 17.6379 115.485 27.2282L115.48 27.9147C115.468 35.2315 117.701 42.3821 121.886 48.4299C126.072 54.4776 132.015 59.1407 138.937 61.8083C145.859 64.476 153.438 65.0238 160.68 63.3802C167.923 61.7365 174.491 57.978 179.526 52.5967C179.701 52.4509 179.789 52.3289 179.765 52.3288L179.978 52.0729L180.091 51.9388L180.229 51.7927L182.353 49.1725C182.526 49.0272 182.678 48.8592 182.805 48.6732C186.653 43.2363 188.919 36.8677 189.359 30.2546C189.799 23.6416 188.395 17.0354 185.3 11.1491C182.205 5.26273 177.535 0.31987 171.796 -3.14599C166.056 -6.61185 159.465 -8.46906 152.732 -8.51717L152.732 -8.5049ZM172.264 45.9356C168.58 49.8529 163.784 52.5881 158.499 53.7857C153.214 54.9832 147.685 54.5876 142.631 52.6503C137.576 50.713 133.23 47.3236 130.158 42.923C127.086 38.5223 125.43 33.314 125.405 27.9752L125.409 27.399C125.641 20.4343 128.635 13.837 133.751 9.02174C138.867 4.20651 145.696 1.5568 152.775 1.64077C159.853 1.72475 166.617 4.53573 171.617 9.47095C176.616 14.4062 179.452 21.0727 179.517 28.0409C179.48 33.3608 177.81 38.5449 174.727 42.9133L172.465 45.6674L172.289 45.9235L172.264 45.9356Z" fill="#EAEAEA" fill-opacity="0.2"/>
<path d="M21.7242 496.595L137.617 497.444C143.371 497.472 148.902 495.204 152.994 491.138C157.086 487.071 159.407 481.539 159.446 475.755L159.665 445.565C159.682 442.588 159.091 439.638 157.928 436.9C156.765 434.161 155.054 431.692 152.903 429.645L152.762 429.513C150.523 427.472 147.913 425.886 145.076 424.84L144.716 424.684C142.6 423.989 140.39 423.628 138.164 423.613L98.4541 423.322C88.5959 423.253 79.0121 420.051 71.0735 414.176C63.135 408.3 57.2485 400.051 54.2561 390.609C54.0217 389.84 53.5817 389.15 52.9841 388.614C52.3864 388.079 51.654 387.719 50.8668 387.573C50.7505 387.561 50.6334 387.56 50.5169 387.57L50.0905 387.567C49.4342 387.564 48.7853 387.705 48.1885 387.98C47.5918 388.255 47.0617 388.656 46.6348 389.157L5.21718 440.4C2.07267 444.27 0.339975 449.105 0.306849 454.102L0.158223 474.587C0.135977 477.456 0.676234 480.301 1.74811 482.96C2.81999 485.618 4.40251 488.039 6.40524 490.082C8.40797 492.126 10.7917 493.753 13.4201 494.871C16.0486 495.988 18.8704 496.574 21.7242 496.595ZM150.85 465.449L150.776 475.692C150.753 479.149 149.368 482.456 146.924 484.887C144.479 487.319 141.175 488.677 137.736 488.664L21.7879 487.814C18.3459 487.78 15.0578 486.375 12.6448 483.908C10.2317 481.44 8.89071 478.111 8.91582 474.652L9.0646 454.144C9.12558 451.153 10.1777 448.267 12.0544 445.945L48.8052 400.461C53.2906 409.883 60.3238 417.847 69.1003 423.441C77.8768 429.035 88.0423 432.033 98.4342 432.093C98.8825 432.096 99.287 432.099 99.7899 432.103C99.9827 432.118 100.176 432.119 100.369 432.107L138.144 432.384C139.398 432.402 140.644 432.592 141.846 432.95C143.729 433.621 145.461 434.661 146.941 436.009C148.232 437.225 149.259 438.696 149.956 440.329C150.654 441.963 151.007 443.724 150.995 445.502L150.858 464.372C150.825 464.527 150.805 464.685 150.8 464.844C150.795 465.047 150.812 465.25 150.85 465.449Z" fill="#EAEAEA" fill-opacity="0.2"/>
<path d="M105.834 414.787C115.577 414.875 124.96 411.169 131.937 404.475C138.914 397.782 142.92 388.645 143.082 379.054L143.087 378.368C143.099 371.051 140.866 363.9 136.68 357.853C132.495 351.805 126.551 347.142 119.629 344.474C112.707 341.807 105.129 341.259 97.8862 342.902C90.6438 344.546 84.0751 348.305 79.0404 353.686C78.865 353.832 78.7769 353.954 78.8018 353.954L78.5882 354.21L78.4752 354.344L78.3371 354.49L76.2134 357.11C76.0403 357.255 75.8882 357.423 75.7614 357.609C71.9133 363.046 69.6471 369.415 69.2074 376.028C68.7677 382.641 70.1712 389.247 73.2664 395.133C76.3616 401.02 81.031 405.963 86.7705 409.428C92.51 412.894 99.1016 414.752 105.834 414.8L105.834 414.787ZM86.3026 360.347C89.9862 356.43 94.7824 353.694 100.067 352.497C105.352 351.299 110.881 351.695 115.936 353.632C120.99 355.57 125.336 358.959 128.408 363.36C131.48 367.76 133.136 372.969 133.161 378.307L133.157 378.883C132.926 385.848 129.931 392.445 124.815 397.261C119.7 402.076 112.87 404.726 105.792 404.642C98.7133 404.558 91.9491 401.747 86.9499 396.812C81.9506 391.876 79.1142 385.21 79.049 378.242C79.0866 372.922 80.7565 367.738 83.8396 363.369L86.1014 360.615L86.2775 360.359L86.3026 360.347Z" fill="#EAEAEA" fill-opacity="0.2"/>
</svg>

<svg width="299" height="521" fill="none" xmlns="http://www.w3.org/2000/svg"><path d="M355.551 211.546l-.431 116.593c-.036 5.789-2.314 11.327-6.335 15.4-4.021 4.072-9.456 6.346-15.113 6.322l-29.525-.109a20.848 20.848 0 01-8.455-1.842 21.278 21.278 0 01-7.04-5.134l-.128-.144a23.717 23.717 0 01-4.485-7.782l-.15-.364a22.162 22.162 0 01-.975-6.603l.148-39.95c.04-9.917-2.987-19.593-8.646-27.643-5.66-8.05-13.662-14.062-22.863-17.175a4.291 4.291 0 01-1.937-1.302 4.44 4.44 0 01-.995-2.141 1.97 1.97 0 01.001-.352l.002-.429c.004-.66.149-1.311.424-1.909a4.552 4.552 0 011.168-1.55l50.562-41.105a21.108 21.108 0 0113.453-4.79l20.034.074c2.806.009 5.582.584 8.17 1.691a21.333 21.333 0 016.915 4.763 21.9 21.9 0 014.606 7.109 22.291 22.291 0 011.595 8.372zm-31.864 129.555l10.017.037c3.381.016 6.63-1.342 9.035-3.774 2.405-2.433 3.769-5.742 3.793-9.202l.432-116.648a13.236 13.236 0 00-3.721-9.24c-2.386-2.454-5.627-3.84-9.01-3.852l-20.056-.074a12.956 12.956 0 00-8.051 2.918l-44.88 36.473c9.166 4.615 16.877 11.777 22.252 20.667 5.375 8.89 8.196 19.149 8.141 29.603l-.005 1.364c.013.194.012.389-.002.583l-.141 38.003c.004 1.261.176 2.517.513 3.73a15.273 15.273 0 002.937 5.159 12.6 12.6 0 004.191 3.08c1.59.72 3.309 1.094 5.047 1.101l18.455.068c.152-.031.307-.049.462-.053.198-.002.397.017.591.057z" fill="#EAEAEA" fill-opacity=".2"/><path d="M275.1 296.217c-.02 9.917-3.894 19.424-10.779 26.45-6.884 7.026-16.22 11.001-25.973 11.058l-.698-.002a36.524 36.524 0 01-20.788-6.749c-6.102-4.327-10.777-10.427-13.412-17.501a38.16 38.16 0 01-1.354-22.145c1.753-7.353 5.648-13.995 11.176-19.059.15-.177.275-.265.275-.24l.263-.215.137-.113.151-.139 2.688-2.132c.149-.175.322-.328.512-.454a36.602 36.602 0 0118.802-6.465 36.488 36.488 0 0119.381 4.344 37.261 37.261 0 0114.384 13.902 38.098 38.098 0 015.247 19.46h-.012zm-55.136-20.483a27.597 27.597 0 00-8.137 13.92 27.94 27.94 0 00.977 16.162 27.44 27.44 0 009.75 12.801 26.748 26.748 0 0015.146 5.004l.586.002c7.084-.158 13.826-3.132 18.779-8.284 4.954-5.152 7.725-12.073 7.719-19.278-.006-7.204-2.788-14.119-7.75-19.262-4.962-5.143-11.709-8.104-18.794-8.248a26.534 26.534 0 00-15.176 4.71l-2.825 2.271-.263.176-.012.026zM201.969 49.677l-.435 117.476a22.115 22.115 0 006.364 15.564 21.749 21.749 0 0015.408 6.483l30.196.112a21.594 21.594 0 008.661-1.792 21.758 21.758 0 007.238-5.12l.132-.144a23.841 23.841 0 004.646-7.807l.155-.365a21.981 21.981 0 001.047-6.646l.149-40.253a47.632 47.632 0 019.05-27.787 47.008 47.008 0 0123.511-17.133 4.397 4.397 0 001.991-1.296 4.45 4.45 0 001.034-2.15 1.91 1.91 0 00.001-.355l.002-.432a4.594 4.594 0 00-1.603-3.497l-51.4-41.795a21.788 21.788 0 00-13.723-4.928l-20.489-.075a21.683 21.683 0 00-8.368 1.642 21.827 21.827 0 00-7.108 4.746 22.03 22.03 0 00-4.764 7.128 22.188 22.188 0 00-1.695 8.424zm31.614 130.772l-10.245-.038a13 13 0 01-9.211-3.87 13.224 13.224 0 01-3.81-9.3l.435-117.532a13.235 13.235 0 013.874-9.282 13.018 13.018 0 019.245-3.813l20.511.076a13.378 13.378 0 018.212 3l45.624 37.086a55.833 55.833 0 00-22.912 20.656 56.464 56.464 0 00-8.548 29.765l-.005 1.375a3.966 3.966 0 00-.002.587l-.142 38.291a13.998 13.998 0 01-.553 3.755 15.367 15.367 0 01-3.042 5.175 12.877 12.877 0 01-4.31 3.072 12.78 12.78 0 01-5.17 1.071l-18.873-.07a2.692 2.692 0 00-.473-.057 2.922 2.922 0 00-.605.053z" fill="#EAEAEA" fill-opacity=".2"/><path d="M284.22 134.785c-.053 9.917 3.625 19.452 10.232 26.527 6.607 7.076 15.607 11.119 25.04 11.247l.675.003c7.196-.015 14.221-2.315 20.155-6.597 5.934-4.282 10.5-10.348 13.099-17.403a39.366 39.366 0 001.471-22.135c-1.641-7.365-5.36-14.036-10.67-19.14-.144-.178-.264-.267-.264-.241l-.253-.217-.132-.114-.144-.14-2.585-2.152a2.426 2.426 0 00-.492-.458c-5.361-3.896-11.632-6.179-18.138-6.601-6.505-.423-12.998 1.03-18.776 4.202-5.779 3.172-10.624 7.943-14.013 13.797-3.389 5.854-5.193 12.57-5.217 19.422h.012zm53.476-20.082c3.865 3.735 6.572 8.606 7.768 13.98a28.833 28.833 0 01-1.062 16.154c-1.888 5.151-5.207 9.587-9.524 12.73-4.318 3.143-9.435 4.848-14.685 4.893l-.567-.002c-6.851-.209-13.35-3.232-18.103-8.421-4.754-5.188-7.383-12.128-7.325-19.333.058-7.204 2.8-14.099 7.636-19.205 4.837-5.107 11.384-8.019 18.237-8.111 5.232.018 10.337 1.698 14.644 4.82l2.716 2.291.253.179.012.025zm-22.899 251.405l-115.893-.849a21.661 21.661 0 00-15.376 6.307 21.89 21.89 0 00-6.452 15.382l-.219 30.19a21.83 21.83 0 001.736 8.665 21.752 21.752 0 005.026 7.255l.141.133a23.444 23.444 0 007.685 4.672l.36.157a21.493 21.493 0 006.553 1.07l39.709.291a46.567 46.567 0 0127.381 9.147 46.96 46.96 0 0116.817 23.566c.235.77.675 1.46 1.272 1.995a4.36 4.36 0 002.118 1.041c.116.012.233.013.35.003l.426.003a4.52 4.52 0 003.456-1.59l41.417-51.243a21.958 21.958 0 004.911-13.702l.148-20.485a21.916 21.916 0 00-6.247-15.495 21.695 21.695 0 00-7.015-4.788 21.618 21.618 0 00-8.304-1.725zm-129.125 31.146l.074-10.242a13.086 13.086 0 013.852-9.196 12.957 12.957 0 019.188-3.777l115.948.85a12.966 12.966 0 019.143 3.907 13.103 13.103 0 013.729 9.256l-.149 20.507a13.481 13.481 0 01-2.99 8.199l-36.751 45.485a55.556 55.556 0 00-20.295-22.981 55.162 55.162 0 00-29.334-8.652l-1.355-.01a4.158 4.158 0 00-.58-.004l-37.774-.277a13.663 13.663 0 01-3.703-.565 15.118 15.118 0 01-5.095-3.06 12.887 12.887 0 01-3.015-4.32 12.944 12.944 0 01-1.038-5.173l.137-18.87c.033-.155.052-.313.058-.472a2.996 2.996 0 00-.05-.605z" fill="#EAEAEA" fill-opacity=".2"/><path d="M230.689 447.916c-9.743-.088-19.126 3.618-26.103 10.312-6.977 6.693-10.983 15.831-11.144 25.421l-.005.686a35.942 35.942 0 006.406 20.516c4.186 6.047 10.129 10.71 17.051 13.378a37.455 37.455 0 0021.743 1.572c7.243-1.644 13.811-5.402 18.846-10.784.175-.145.264-.267.239-.268l.213-.255.113-.134.138-.147 2.124-2.62c.173-.145.325-.313.452-.499a36.017 36.017 0 006.554-18.419 35.911 35.911 0 00-4.059-19.105 36.632 36.632 0 00-13.504-14.295 37.416 37.416 0 00-19.063-5.372l-.001.013zm19.532 54.44a27.106 27.106 0 01-13.765 7.85 27.426 27.426 0 01-15.868-1.135 26.97 26.97 0 01-12.473-9.727 26.323 26.323 0 01-4.753-14.948l.004-.576c.232-6.965 3.226-13.562 8.342-18.378 5.116-4.815 11.945-7.465 19.024-7.381 7.078.084 13.842 2.895 18.842 7.831 4.999 4.935 7.835 11.601 7.9 18.57a26.1 26.1 0 01-4.79 14.872l-2.262 2.754-.176.256-.025.012zM152.732-8.505c-9.743-.088-19.126 3.619-26.103 10.312s-10.983 15.83-11.144 25.421l-.005.687a35.94 35.94 0 006.406 20.515c4.186 6.048 10.129 10.71 17.051 13.378a37.453 37.453 0 0021.743 1.572c7.243-1.644 13.811-5.402 18.846-10.783.175-.146.263-.268.239-.268l.213-.256.113-.134.138-.146 2.124-2.62c.173-.146.325-.314.452-.5a36.015 36.015 0 006.554-18.418 35.914 35.914 0 00-4.059-19.106 36.636 36.636 0 00-13.504-14.295 37.409 37.409 0 00-19.064-5.371v.012zm19.532 54.44a27.115 27.115 0 01-13.765 7.85 27.428 27.428 0 01-15.868-1.135 26.969 26.969 0 01-12.473-9.727 26.322 26.322 0 01-4.753-14.948l.004-.576c.232-6.965 3.226-13.562 8.342-18.377 5.116-4.815 11.945-7.465 19.024-7.381 7.078.084 13.842 2.895 18.842 7.83 4.999 4.935 7.835 11.602 7.9 18.57a26.1 26.1 0 01-4.79 14.872l-2.262 2.754-.176.256-.025.013zm-150.54 450.66l115.893.849a21.667 21.667 0 0015.377-6.306 21.898 21.898 0 006.452-15.383l.219-30.19a21.849 21.849 0 00-1.737-8.665 21.75 21.75 0 00-5.025-7.255l-.141-.132a23.45 23.45 0 00-7.686-4.673l-.36-.156a21.458 21.458 0 00-6.552-1.071l-39.71-.291a46.572 46.572 0 01-27.38-9.146 46.967 46.967 0 01-16.818-23.567 4.405 4.405 0 00-1.272-1.995 4.37 4.37 0 00-2.117-1.041 1.86 1.86 0 00-.35-.003l-.427-.003a4.495 4.495 0 00-1.902.413 4.533 4.533 0 00-1.553 1.177L5.217 440.4a21.96 21.96 0 00-4.91 13.702l-.149 20.485a21.941 21.941 0 001.59 8.373 21.844 21.844 0 004.657 7.122 21.728 21.728 0 007.015 4.789 21.638 21.638 0 008.304 1.724zm129.126-31.146l-.074 10.243a13.092 13.092 0 01-3.852 9.195 12.958 12.958 0 01-9.188 3.777l-115.948-.85a12.969 12.969 0 01-9.143-3.906 13.105 13.105 0 01-3.73-9.256l.15-20.508a13.483 13.483 0 012.99-8.199l36.75-45.484a55.566 55.566 0 0020.295 22.98 55.163 55.163 0 0029.334 8.652l1.356.01c.193.015.386.016.579.004l37.775.277c1.254.018 2.5.208 3.702.566a15.09 15.09 0 015.095 3.059 12.883 12.883 0 013.015 4.32 12.945 12.945 0 011.039 5.173l-.137 18.87a2.671 2.671 0 00-.008 1.077z" fill="#EAEAEA" fill-opacity=".2"/><path d="M105.834 414.787c9.743.088 19.126-3.618 26.103-10.312 6.977-6.693 10.983-15.83 11.145-25.421l.005-.686a35.93 35.93 0 00-6.407-20.515c-4.185-6.048-10.129-10.711-17.051-13.379a37.462 37.462 0 00-21.743-1.572 37.032 37.032 0 00-18.846 10.784c-.175.146-.263.268-.238.268l-.214.256-.113.134-.138.146-2.124 2.62a2.455 2.455 0 00-.452.499 36.013 36.013 0 00-6.554 18.419 35.912 35.912 0 004.06 19.105 36.624 36.624 0 0013.504 14.295 37.406 37.406 0 0019.063 5.372v-.013zm-19.531-54.44a27.111 27.111 0 0113.764-7.85 27.43 27.43 0 0115.869 1.135 26.974 26.974 0 0112.472 9.728 26.32 26.32 0 014.753 14.947l-.004.576c-.231 6.965-3.226 13.562-8.342 18.378-5.115 4.815-11.945 7.465-19.023 7.381-7.079-.084-13.843-2.895-18.842-7.83-5-4.936-7.836-11.602-7.901-18.57a26.108 26.108 0 014.79-14.873l2.262-2.754.177-.256.025-.012z" fill="#EAEAEA" fill-opacity=".2"/></svg>
